X: 1
T: Tommy Peoples'
R: reel
M: 4/4
L: 1/8
K: Bmin
|:B3 c dBAF|~B3 c dfed|~B3 c dcdB|1 ABde fded:|2 ABde fdec||
|:dfaf bfaf|dfaf (3ggg fg|afge ~d3 B|1 ABde fdec:|2 ABde fded||


Tune 192	Setting 12846

